X: 207
T: A Good Head, A Good Heart
R: reel
M: 4/4
K: Amajor
|:eAce acea|gbbg aece|efdf eaag|aecA Bcd^d|
eAce acea|gbbg aece|efdf eaag|aecB ABcd:|
|:efec A4|efec efaf|faec EFFE|FGAB AGFE|
efec A4|efec efaf|faag aecA|Bcdc BAFA:|

